X:1
T:James Gibb editions
T:Ich danke dem Herrn - Schütz
T:#
%%score 1 2
L:1/8
Q:1/4=100
M:2/2
K:F
V:1 treble nm="Alto"
V:2 bass nm="Continuo"
V:1
"^Ich danke dem Herrn, SWV 284""^Heinrich Schütz\n(1585-1672)""^Psalm 111" z2 D2 E2 ^FF | %1
w: Ich dan- ke dem|
 G2 D2 G2 =F2 | E4 D2 F2 | _E2 D2 C4 | C2 C4 D2- | D2 C4 B,2 | A,4 G,4 | z2 G2 DD G2 | E2 A2 G4 | %9
w: Herrn von gan- zem|Her- zen im|Rath der From-|men und in|* der Ge-|mei- ne.|Gross sind die Wer-|ke des Her-|
 F2 C4 D2 | (E6 FG) | E4 z4 | DEFD E2 E2 | FGAF GABG | (^FG/A/ G4 F2) | G8 | z2 DD E4 | %17
w: ren, wer ihr|ach\- * *|tet|der hat ei- tel Lust dran,|der hat ei- tel, der hat ei- tel|Lust * * * *|dran,|was er ord-|
 E2 EE F2 _ED | D4 C4 | z2 E2 F2 GG | A3 A A4 | z2 F4 (E/F/G/F/) | E6 E2 | D8 | z4 D2 D2 | %25
w: net, das ist löb- lich und|herr- lich,|und sei- ne Ge-|rech- tig- keit|wäh- ret * * *|e- wig-|lich.|Er hat|
 C2 C2 B,4- | B,2 A,A, G,4 | G,4 z2 (G,2- | G,A,B,C DE F2- | F2) E2 G4 | E8 | z2 ^F2 ^G3 G | %32
w: ein Ge- dächt\-|* niss ge- stif-|tet sei\-||* ner Wun-|der,|der gnä- di-|
 A2 D2 E4 | F6 E2 | E8 | D8 | z2 E2 ^F3 F | G2 C2 D4 | _E6 D2 | D8 | C8 | z4 G2 D2 | E2 C2 D2 E2 | %43
w: ge und barm-|her- zi-|ge|Herr,|der gnä- di-|ge und barm-|her- zi-|ge|Herr.|Er giebt|Spei- se de- nen|
 F2 E2 G4 | ^C4 z2 EE | ^F2 F2 G3 =F | E2 F2 (A4- | A2 G2 G4- | G4) ^F4 | !fermata!G8 | %50
w: so ihn fürch-|ten, er ge-|den- ket e- wig-|lich an sei\-||* nen|Bund.|
"^Symphonia" G2 DE F2 E2 | D2 C2 B,2 C2 | DE F4 E2 | F2 F3 G _E2 | D4 z4 | _EEDE C4 | FFEF D4 | %57
w: |||||||
 G2 F2 _EF G2- | G2 ^F=E F4 | G8 ||"^Vox" z GFE F2 FF | F2 FF F2 FG | G4 A2 F2- | F2 E2 D4 | %64
w: |||Er lässt ver- kün- di- gen|sei- nn ge- wal- ti- ge|Tha- ten sei\-|* nem Volk,|
 z4 EEDE | C2 CC F2 EF | (D3 E/F/ G4- | G4) ^F4 | z2 ^F2 G2 DD | E4 F2 C2 | D4 C2 B,2 | %71
w: dass er ih- nen|ge- be das Er- be der|Hei\- * * *|* den;|die Werk sei- ner|Hän- de sind|Wahr- heit und|
 A,4 z2 A,2- | A,2 A,2 A,2 B,B, | C4 C2 B,2 | A,8 | G,4 z2 D2 | D2 DD D4 | D2 D4 EE | F3 F F4 | %79
w: Recht, al\-|* le sei- ne Ge-|bot sind recht-|schaf-|fen, sie|wer- den er- hal-|ten im- mer und|e- wig- lich|
 z2 FF F2 G2 | G4 G2 z A | A8 | G8 | z8 | z4 z2 G2 | FGFE D2 D2 | C3 B, B,4 | z2 CC C2 CF | %88
w: un ge- sche- hen|treu- lich und|red-|lich.||Er|sen- det ein Er- lö- sung|sei- nem Volk,|er ver- heisst, dass sein|
 D2 G4 G>E | E3 D D2 F2- | F2 _E>D D3 C | C8 | z2 D4 CC | F4 F2 E2 | (C4- CD/E/ DC) | D4 z2 D2 | %96
w: Bund e- wig- lich|blei- ben soll, e\-|* wig- lich blei- ben|soll,|hei- lig und|hehr ist sein|Na\- * * * * *|me. Die|
 _E2 z =E F2 D2 | FF_ED C4 | B,2 D2 F2 z ^F | G2 D2 GFFE | E4 D2 F2 | F2 FG _E2 D2 | C4 D4 | %103
w: Furcht des Her- ren|ist der Wei- sheit An-|fang, die Furcht des|Her- ren ist der Wei- sheit|An- fang, das|ist ei- ne fei- ne|Klug- heit,|
 z A,DC =B,2 z D | G2 F_E D3 C | CG,CB, A,2 z C | F2 _ED C3 B, | B,F,B,A, G,2 z B, | D4 C2 B,2 | %109
w: wer dar- nach thut, des|Lob blei- bet e- wig-|lich, wer dar- nach thut, des|Lob blei- bet e- wig-|lieh, wer dar- nach thut, des|Lob blei- bet|
 A,3 A, G,2 G2 | B4 A2 G2 | (^F3 G/A/ G4- | G4) ^F4 | G16 |] %114
w: e- wig- lich, des|Lob blei- bet|e\- * * *|* wig-|lich.|
V:2
 G,,2 B,,2 C,2 D,2 | G,,2 B,,2 C,2 D,2 | A,,4 D,4 | C,2 B,,2 F,4 | F,2 F,4 B,,2 | C,2 _E,2 D,4 | %6
w: |||||* 6 ~~~~~~4|
w: ||||||
 D,4 G,,4 | G,,6 G,,2 | A,,2 F,,2 C,4 | F,,2 F,,4 B,,2 | A,,8 | A,,4 A,,B,,C,A,, | B,,4 C,4 | %13
w: 4 *|||||||
w: |||||||
 D,4 _E,4 | D,8 | G,,8 | G,,4 C,4 | C,4 F,,4 | G,,4 C,4 | A,,4 D,2 C,2 | F,4 F,4 | D,4 G,,4 | %22
w: |||||||||
w: |||||||||
 A,,8 | D,8 | D,8 | A,,4 B,,4- | B,,2 G,,2 C,4- | C,4 C,4 | G,,3 A,, B,,3 C, | D,2 C,2 B,,4 | %30
w: |||||||* * 6|
w: ||||||||
 A,,4 C,4 | D,3 D, E,4 | A,,2 =B,,2 ^C,4 | F,,4- F,,2 G,,2 | A,,8 | D,4 =B,,4 | ^C,3 C, D,4 | %37
w: |||7~~6 6 *|4|||
w: |||||||
 G,,2 A,,2 B,,4 | _E,,4- E,,2 F,,2 | G,,8 | C,8 | C,4 =B,,4 | C,4 G,,2 C,2 | D,2 C,2 B,,4 | A,,8 | %45
w: |7~~6 6 *|4||||* * 6||
w: ||||||||
 D,4 =B,,4 | C,4 F,,4 | B,,6 C,2 | D,8 | !fermata!G,,8 | G,2 F,E, D,2 C,2 | B,,2 A,,2 G,,2 A,,2 | %52
w: ||7~~6~~6 *|4||||
w: |||||||
 B,,2 D,2 C,4 | F,,2 B,2 G,2 C,2 | G,4 G,G,^F,G, | C,4 _E,E,D,E, | D,4 G,2 F,2 | %57
w: |* * 7 *||||
w: |||||
 _E,2 D,2 C,D,E,C, | D,8 | G,,8 || G,,4 D,2 C,2 | B,,2 A,,2 B,,2 D,2 | C,4 F,,2 B,,2- | %63
w: ||||||
w: ||||||
 B,,2 C,2 G,,4 | G,G,^F,G, C,4 | F,2 E,F, D,4 | G,2 F,2 _E,4 | D,4- D,4 | D,4 G,,4 | C,4 F,,4 | %70
w: ||||6 *|||
w: ||||4 *|||
 B,,4 C,4 | D,4 D,4- | D,2 D,2 D,2 G,2 | F,4 C,4 | D,8 | G,,4 G,,4 | G,,8 | G,,2 G,,4 C,2 | B,,8 | %79
w: |||||||||
w: |||||||||
 B,,8 | _E,8 | D,8 | G,,6 G,2 | F,G,F,E, D,2 B,,2 | C,2 D,2 G,,4 | D,4 B,,4 | _E,2 F,2 B,,4 | F,8 | %88
w: |||||||||
w: |||||||||
 G,4 A,4- | A,4 D,4 | G,8 | C,8 | B,,6 A,,2 | B,,4 B,,2 C,2 | A,,8 | G,,4 G,,4 | %96
w: * ~~~~~4|4 *|~~~~~~~4||||||
w: ||||||||
 C,2 A,,2 D,2 B,,2- | B,,2 _E,2 F,4 | B,,4 B,,2 D,2 | G,,4 G,,4 | A,,4 D,2 B,,2 | B,,4 C,2 D,2 | %102
w: ||||||
w: ||||||
 _E,4 D,4 | D,4 G,,4- | G,,8 | C,4 F,,4- | F,,8 | B,,4 _E,4 | B,,4 C,4 | D,4 _E,4 | B,,4 C,4 | %111
w: ||~~~~~~~4||3~~~~~4~~~~~~~~~~~~~~~3||||* 6~~~~~~5|
w: |||||||||
 D,8- | D,8 | G,,16 |] %114
w: |||
w: |||

